!!!OTL: IN MEINES VATERS GARTEN
!!!ARE: Europa, Mitteleuropa, Deutschland, Hessen, Nassau, Dill - Kreis
!!!SCT: E1422
!!!YEM: Copyright 1995, estate of Helmut Schaffrath.
**kern
*ICvox
*Ivox
*M4/4
*k[]
*C:
{4C
=1
4C
4E
4G
4c
=2
2G
4E}
{4G
=3
4G
4F
4F
4A
=4
4A
4G
4G}
{4AA
=5
4C
4E
4G
4c
=6
2A
4f}
{4f
=7
4g
4g
4B
4B
=8
2c
4r}
{8G
8G
=9
4A
4c
4A
4c
=10
4G
4G
4E}
{8G
8G
=11
4G
4F
4F
8A
8A
=12
4A
4G
4G}
{4AA
=13
4C
4E
4G
4c
=14
2A
4f}
{4f
=15
4g
4g
4B
4B
=16
2c
4r}
==
!!!AGN: Staende -, Soldaten - Lied, Liebe
!!!ONB: ESAC (Essen Associative Code) Database: ERK3
!!!AMT: simple quadruple
!!!AIN: vox
!!!EED: Helmut Schaffrath
!!!EEV: 1.0
*-
